public/library/pendle-text-dark.svg

<svg width="222" height="67" viewBox="0 0 222 67" fill="none" xmlns="http://www.w3.org/2000/svg">
<circle cx="30.0001" cy="32.7983" r="16.8095" fill="white" fill-opacity="0.5"/>
<circle cx="22.4379" cy="48.7635" r="9.24751" fill="white"/>
<mask id="mask0_2584_2118" style="mask-type:alpha" maskUnits="userSpaceOnUse" x="21" y="16" width="3" height="26">
<path fill-rule="evenodd" clip-rule="evenodd" d="M21.4207 41.7253L21.4207 16.9419L23.4822 16.9419L23.4822 41.7253L21.4207 41.7253Z" fill="white"/>
</mask>
<g mask="url(#mask0_2584_2118)">
<path d="M46.8096 32.7981C46.8096 42.0818 39.2838 49.6076 30.0001 49.6076C20.7165 49.6076 13.1906 42.0818 13.1906 32.7981C13.1906 23.5145 20.7165 15.9886 30.0001 15.9886C39.2838 15.9886 46.8096 23.5145 46.8096 32.7981Z" fill="white"/>
</g>
<path d="M69.501 34.8091H65.326V41.5591H62.301V24.3341H69.601C71.651 24.3341 74.551 26.0341 74.551 29.4341C74.551 33.9841 71.251 34.8091 69.501 34.8091ZM65.326 32.2591H69.526C70.201 32.2591 71.576 31.6841 71.576 29.4341C71.576 27.8591 70.451 26.9091 69.601 26.9091H65.326V32.2591ZM91.4336 33.9591V37.9341C91.4336 38.5091 91.6336 39.0091 92.6086 39.0091H99.3836V41.5591H92.4586C89.6836 41.4841 88.4586 40.6341 88.4086 38.0591V24.3341H99.3836V26.8841H91.4336V31.4091H98.8336V33.9591H91.4336ZM116.886 29.0341V41.5591H113.861V24.3341H116.861C119.161 27.2341 122.236 31.8341 124.236 36.0841V24.3341H127.261V41.5591H124.236C122.236 37.5591 120.011 33.5091 116.886 29.0341ZM148.483 41.5591H142.533V24.3341H148.483C152.658 24.3341 156.533 27.2591 156.533 32.9841C156.533 38.7841 152.658 41.5591 148.483 41.5591ZM145.558 39.0091H147.433C151.333 39.0091 153.383 36.9591 153.383 32.9841C153.383 29.0591 151.508 26.8841 147.433 26.8841H145.558V39.0091ZM173.839 24.3341V37.7091C173.839 38.4091 174.089 39.0091 175.264 39.0091H181.989V41.5591H174.864C172.089 41.4841 170.864 40.6341 170.814 38.0591V24.3341H173.839ZM198.483 33.9591V37.9341C198.483 38.5091 198.683 39.0091 199.658 39.0091H206.433V41.5591H199.508C196.733 41.4841 195.508 40.6341 195.458 38.0591V24.3341H206.433V26.8841H198.483V31.4091H205.883V33.9591H198.483Z" fill="white"/>
</svg>

<svg xmlns="http://www.w3.org/2000/svg" width="222" height="67" fill="none" viewBox="0 0 222 67"><circle cx="30" cy="32.798" r="16.809" fill="#fff" fill-opacity=".5"/><circle cx="22.438" cy="48.764" r="9.248" fill="#fff"/><mask id="a" width="3" height="26" x="21" y="16" maskUnits="userSpaceOnUse" style="mask-type:alpha"><path fill="#fff" fill-rule="evenodd" d="M21.42 41.725V16.942h2.062v24.783z" clip-rule="evenodd"/></mask><g mask="url(#a)"><path fill="#fff" d="M46.81 32.798c0 9.284-7.526 16.81-16.81 16.81s-16.81-7.526-16.81-16.81 7.527-16.81 16.81-16.81c9.284 0 16.81 7.527 16.81 16.81"/></g><path fill="#fff" d="M69.501 34.81h-4.175v6.75h-3.025V24.333h7.3c2.05 0 4.95 1.7 4.95 5.1 0 4.55-3.3 5.375-5.05 5.375m-4.175-2.55h4.2c.675 0 2.05-.576 2.05-2.826 0-1.575-1.125-2.525-1.975-2.525h-4.275zm26.108 1.7v3.974c0 .575.2 1.075 1.175 1.075h6.775v2.55h-6.925c-2.775-.075-4-.925-4.05-3.5V24.334h10.975v2.55h-7.95v4.525h7.4v2.55zm25.452-4.926V41.56h-3.025V24.334h3c2.3 2.9 5.375 7.5 7.375 11.75v-11.75h3.025V41.56h-3.025c-2-4-4.225-8.05-7.35-12.525m31.597 12.525h-5.95V24.334h5.95c4.175 0 8.05 2.925 8.05 8.65 0 5.8-3.875 8.575-8.05 8.575m-2.925-2.55h1.875c3.9 0 5.95-2.05 5.95-6.025 0-3.925-1.875-6.1-5.95-6.1h-1.875zm28.281-14.675V37.71c0 .7.25 1.3 1.425 1.3h6.725v2.55h-7.125c-2.775-.075-4-.925-4.05-3.5V24.334zm24.644 9.625v3.975c0 .575.2 1.075 1.175 1.075h6.775v2.55h-6.925c-2.775-.075-4-.925-4.05-3.5V24.334h10.975v2.55h-7.95v4.525h7.4v2.55z"/></svg>
